css/images/noun-building-1039858.svg

<svg xmlns="http://www.w3.org/2000/svg" xmlns:xlink="http://www.w3.org/1999/xlink" version="1.1" x="0px" y="0px" viewBox="0 0 150 187.5" enable-background="new 0 0 150 150" xml:space="preserve"><g><g><polygon points="115.4932251,149.7637634 98.0236893,138.6278687 116.2313309,110.0626678 133.7008667,121.1974106     127.0740509,131.5952148 125.0873871,130.3305511 130.4495392,121.9171219 116.9510345,113.3139877 101.2750092,137.9081573     114.7735214,146.5124359 120.638092,137.310318 122.6247559,138.5749817   "/></g><g><path d="M125.9692001,143.3473358l-9.3768692-8.3628387l4.8528442-8.0064392l10.2874298,6.0209198L125.9692001,143.3473358z     M119.6206131,134.5315247l5.7208557,5.1023102l3.2133865-5.7679901l-6.2980042-3.6847534L119.6206131,134.5315247z"/></g><g><polygon points="42.9822845,151.2411041 40.6277199,151.2411041 40.6277199,134.7706604 43.8020134,128.0748596     45.9289398,129.0842896 42.9822845,135.2995148   "/></g><g><polygon points="41.0542564,135.9421844 32.540802,128.8991852 43.1915283,106.757309 45.313858,107.7782364     35.4610138,128.259964 42.5557518,134.1279755   "/></g><g><rect x="97.598877" y="111.2962112" transform="matrix(0.9999961 -0.0027773 0.0027773 0.9999961 -0.359887 0.2748347)" width="2.3545749" height="36.8419533"/></g><g><path d="M70.0540314,146.8849335l-2.0257492-1.2002716l24.5815201-41.4555206l0.9300995,0.3598557    c5.1552048,1.9981613,8.6893539,10.4656219,12.4304428,19.4297562c0.4690781,1.1243973,0.9393005,2.2487946,1.410675,3.3582458    l-2.1660233,0.9220428c-0.4748154-1.1140442-0.9461899-2.2441864-1.4175644-3.3731842    c-3.14785-7.5442657-6.3957214-15.3265152-10.2276382-17.6983261L70.0540314,146.8849335z"/></g><g><path d="M42.6304817,146.3089447l-1.6509552-1.6785583l44.2032738-43.4835663l0.4771271-0.0034485    c0.0482864,0,0.0965729,0,0.1437073,0c4.4975891,0,7.3258286,1.3819275,8.4053879,4.1101456l-2.1890106,0.8668671    c-0.6656723-1.6819992-2.6408386-2.5626602-5.8726196-2.6201477L42.6304817,146.3089447z"/></g><g><path d="M37.6362267,119.1176224l-11.423317-31.7463837l20.80019-20.467926l15.1103745,29.173378    c0.1023216,0.1965942,0.2563782,0.3598557,0.4472275,0.4713745l7.2487946,4.2630463    c0.3679047,0.2172928,0.7875366,0.3311157,1.2140732,0.3311157l14.6343994,0.0011444v2.3545685l-14.6343994-0.001152    c-0.8473206,0-1.6796951-0.2264862-2.4085999-0.6564713l-7.2476463-4.2619019    c-0.5736923-0.3368607-1.0381699-0.827774-1.3439865-1.4187164L46.3899689,70.8191528L28.9376736,87.9920731    l10.9151554,30.3276672L37.6362267,119.1176224z"/></g><g><rect x="42.7943192" y="81.053627" transform="matrix(0.7196875 -0.6942982 0.6942982 0.7196875 -43.6369781 56.3787575)" width="10.4173269" height="2.3546929"/></g><g><path d="M89.4447021,103.496788H70.2115402l0.3713531-1.4670029c1.5750732-6.2129288,0.0046005-12.4683914-1.5900269-16.6210709    l2.1982117-0.8438721c1.5934677,4.150383,3.1593475,10.2713318,1.9947128,16.5773849h12.7753525    c-1.9119339-5.6058884-1.4853973-11.1910858,1.2612076-16.2485733l2.0694427,1.1243973    c-2.6983185,4.9666595-2.8799744,10.2977753-0.5380554,15.8438797L89.4447021,103.496788z"/></g><g><path d="M79.3435287,91.6641769c-7.9616013,0-14.4378052-9.2228088-14.4378052-20.558754    s6.4762039-20.558754,14.4378052-20.558754S93.782486,59.7694817,93.782486,71.105423S87.30513,91.6641769,79.3435287,91.6641769z     M79.3435287,52.9012375c-6.6624527,0-12.0832443,8.1662445-12.0832443,18.2041855s5.4207916,18.2041931,12.0832443,18.2041931    c6.6636047,0,12.0843887-8.1662445,12.0843887-18.2041931S86.0071335,52.9012375,79.3435287,52.9012375z"/></g><g><rect x="92.4058914" y="63.9354973" transform="matrix(0.9629843 -0.2695575 0.2695575 0.9629843 -13.9311914 28.7749462)" width="10.8033133" height="2.3543358"/></g><g><rect x="85.9948502" y="50.6142006" transform="matrix(0.656082 -0.7546896 0.7546896 0.656082 -7.2491989 87.6760101)" width="13.1563187" height="2.3551676"/></g><g><rect x="74.5268021" y="44.3841019" transform="matrix(0.057634 -0.9983378 0.9983378 0.057634 30.6277046 123.5689163)" width="12.4823875" height="2.3538787"/></g><g><rect x="64.3848038" y="43.5743256" transform="matrix(0.5640513 -0.8257397 0.8257397 0.5640513 -13.560813 76.3870544)" width="2.3559387" height="14.9242258"/></g><g><rect x="59.1928673" y="59.5990868" transform="matrix(0.3288855 -0.9443698 0.9443698 0.3288855 -21.4810734 101.069397)" width="2.3546569" height="12.0986691"/></g><g><path d="M67.0889816,67.1022034l-1.0990982-2.0832367c6.8716965-3.6272697,10.9783859-8.1892395,12.2062531-13.5571442    l2.2947845,0.5242615C79.103241,58.0529976,74.594162,63.139225,67.0889816,67.1022034z"/></g><g><path d="M91.8647995,67.2033768c-6.6107178-1.6394577-11.0749588-6.5911713-13.6491165-15.1402664l2.2556915-0.6783142    c2.313179,7.6845245,6.2255707,12.1108322,11.9590759,13.5329971L91.8647995,67.2033768z"/></g><g><rect x="30.2490654" y="37.9084816" transform="matrix(0.9834789 -0.1810228 0.1810228 0.9834789 -10.1939917 6.6665974)" width="2.3542259" height="42.5458679"/></g><g><rect x="36.7470856" y="23.8233967" transform="matrix(0.9415821 -0.3367836 0.3367836 0.9415821 -13.7608538 15.543479)" width="2.3542786" height="47.2290268"/></g><g><path d="M31.1485271,39.4372177h-9.4941387V18.6186333h9.4941387V39.4372177z M24.0089531,37.082653h4.7850094V20.9731979    h-4.7850094V37.082653z"/></g><g><path d="M35.9438858,20.9731979H16.2991333v-9.8263998h19.6447525V20.9731979z M18.653698,18.6186333h14.9356232v-5.1172705    H18.653698V18.6186333z"/></g><g><path d="M29.333168,13.5013628h-5.489769l-2.0016098-3.9342384c-2.0211563-5.0068998,3.8169689-9.7390232,4.066452-9.9379196    l1.0910568-0.8703153l0.6737175,1.2209706c5.746151,10.400095,2.6224422,12.9512568,1.9372272,13.3570967L29.333168,13.5013628z     M25.2862587,11.1467981h3.208786c0.2609787-0.5782938,0.8392735-2.8040934-2.1717644-8.6928053    c-1.3060493,1.3508856-3.2547722,3.867557-2.3396206,6.1393442L25.2862587,11.1467981z"/></g></g><text x="0" y="165" fill="#000000" font-size="5px" font-weight="bold" font-family="'Helvetica Neue', Helvetica, Arial-Unicode, Arial, Sans-serif">Created by DinosoftLabs</text><text x="0" y="170" fill="#000000" font-size="5px" font-weight="bold" font-family="'Helvetica Neue', Helvetica, Arial-Unicode, Arial, Sans-serif">from the Noun Project</text></svg>

<svg width="150" height="188" viewBox="0 0 150 188" fill="none" xmlns="http://www.w3.org/2000/svg">
<g clip-path="url(#clip0_1_138)">
<path d="M115.493 149.764L98.0237 138.628L116.231 110.063L133.701 121.197L127.074 131.595L125.087 130.331L130.45 121.917L116.951 113.314L101.275 137.908L114.774 146.512L120.638 137.31L122.625 138.575L115.493 149.764Z" fill="black"/>
<path d="M125.969 143.347L116.592 134.984L121.445 126.978L131.733 132.999L125.969 143.347ZM119.621 134.532L125.341 139.634L128.555 133.866L122.257 130.181L119.621 134.532Z" fill="black"/>
<path d="M42.9823 151.241H40.6277V134.771L43.802 128.075L45.9289 129.084L42.9823 135.3V151.241Z" fill="black"/>
<path d="M41.0543 135.942L32.5408 128.899L43.1915 106.757L45.3139 107.778L35.461 128.26L42.5558 134.128L41.0543 135.942Z" fill="black"/>
<path d="M99.9023 111.293L97.5477 111.3L97.65 148.141L100.005 148.135L99.9023 111.293Z" fill="black"/>
<path d="M70.054 146.885L68.0283 145.685L92.6098 104.229L93.5399 104.589C98.6951 106.587 102.229 115.055 105.97 124.019C106.439 125.143 106.91 126.268 107.381 127.377L105.215 128.299C104.74 127.185 104.269 126.055 103.797 124.926C100.65 117.382 97.4017 109.599 93.5698 107.228L70.054 146.885Z" fill="black"/>
<path d="M42.6305 146.309L40.9795 144.63L85.1828 101.147L85.6599 101.143C85.7082 101.143 85.7565 101.143 85.8036 101.143C90.3012 101.143 93.1295 102.525 94.209 105.254L92.02 106.12C91.3543 104.438 89.3792 103.558 86.1474 103.5L42.6305 146.309Z" fill="black"/>
<path d="M37.6362 119.118L26.2129 87.3712L47.0131 66.9033L62.1235 96.0767C62.2258 96.2733 62.3798 96.4365 62.5707 96.5481L69.8195 100.811C70.1874 101.028 70.607 101.142 71.0336 101.142L85.668 101.143V103.498L71.0336 103.497C70.1862 103.497 69.3539 103.27 68.625 102.84L61.3773 98.5784C60.8036 98.2416 60.3391 97.7506 60.0333 97.1597L46.39 70.8192L28.9377 87.9921L39.8528 118.32L37.6362 119.118Z" fill="black"/>
<path d="M50.9342 77.7673L43.437 85L45.0718 86.6947L52.569 79.4619L50.9342 77.7673Z" fill="black"/>
<path d="M89.4447 103.497H70.2115L70.5829 102.03C72.158 95.8169 70.5875 89.5614 68.9929 85.4087L71.1911 84.5648C72.7845 88.7152 74.3504 94.8362 73.1858 101.142H85.9611C84.0492 95.5363 84.4757 89.9511 87.2224 84.8937L89.2918 86.0181C86.5935 90.9847 86.4118 96.3158 88.7537 101.862L89.4447 103.497Z" fill="black"/>
<path d="M79.3435 91.6642C71.3819 91.6642 64.9057 82.4414 64.9057 71.1054C64.9057 59.7695 71.3819 50.5467 79.3435 50.5467C87.3051 50.5467 93.7825 59.7695 93.7825 71.1054C93.7825 82.4414 87.3051 91.6642 79.3435 91.6642ZM79.3435 52.9012C72.6811 52.9012 67.2603 61.0675 67.2603 71.1054C67.2603 81.1434 72.6811 89.3096 79.3435 89.3096C86.0071 89.3096 91.4279 81.1434 91.4279 71.1054C91.4279 61.0675 86.0071 52.9012 79.3435 52.9012Z" fill="black"/>
<path d="M102.692 62.523L92.2885 65.4351L92.9231 67.7023L103.327 64.7902L102.692 62.523Z" fill="black"/>
<path d="M96.0001 46.0547L87.3685 55.9837L89.1459 57.5288L97.7775 47.5999L96.0001 46.0547Z" fill="black"/>
<path d="M79.9527 39.2624L79.2333 51.724L81.5833 51.8597L82.3027 39.3981L79.9527 39.2624Z" fill="black"/>
<path d="M60.0654 45.8547L58.7366 47.8001L71.0601 56.2181L72.389 54.2728L60.0654 45.8547Z" fill="black"/>
<path d="M55.0446 62.547L54.2702 64.7707L65.6958 68.7498L66.4702 66.5261L55.0446 62.547Z" fill="black"/>
<path d="M67.089 67.1022L65.9899 65.019C72.8616 61.3917 76.9683 56.8297 78.1961 51.4618L80.4909 51.9861C79.1032 58.053 74.5942 63.1392 67.089 67.1022Z" fill="black"/>
<path d="M91.8648 67.2034C85.2541 65.5639 80.7898 60.6122 78.2157 52.0631L80.4714 51.3848C82.7846 59.0693 86.6969 63.4956 92.4305 64.9178L91.8648 67.2034Z" fill="black"/>
<path d="M28.733 38.0469L26.4176 38.473L34.1194 80.316L36.4347 79.8898L28.733 38.0469Z" fill="black"/>
<path d="M31.0796 24.8065L28.8629 25.5993L44.7688 70.0693L46.9856 69.2765L31.0796 24.8065Z" fill="black"/>
<path d="M31.1485 39.4372H21.6544V18.6186H31.1485V39.4372ZM24.009 37.0826H28.794V20.9732H24.009V37.0826Z" fill="black"/>
<path d="M35.9439 20.9732H16.2991V11.1468H35.9439V20.9732ZM18.6537 18.6186H33.5893V13.5014H18.6537V18.6186Z" fill="black"/>
<path d="M29.3332 13.5014H23.8434L21.8418 9.56712C19.8206 4.56022 25.6588 -0.1719 25.9082 -0.370797L26.9993 -1.24111L27.673 -0.0201412C33.4192 10.38 30.2955 12.9311 29.6102 13.337L29.3332 13.5014ZM25.2863 11.1468H28.495C28.756 10.5685 29.3343 8.3427 26.3233 2.45399C25.0172 3.80488 23.0685 6.32155 23.9837 8.59334L25.2863 11.1468Z" fill="black"/>
</g>
<defs>
<clipPath id="clip0_1_138">
<rect width="150" height="187.5" fill="white"/>
</clipPath>
</defs>
</svg>
